svg/u1f617.svg

<svg viewBox="0 0 128 128" xmlns="http://www.w3.org/2000/svg">
  <g id="gold">
    <radialGradient id="face_1_" cx="63.6" cy="512.9" gradientTransform="matrix(1 0 0 1 0 -450)" gradientUnits="userSpaceOnUse" r="56.9597">
      <stop offset="0.5" stop-color="#FDE030"/>
      <stop offset="0.92" stop-color="#F7C02B"/>
      <stop offset="1" stop-color="#F4A223"/>
    </radialGradient>
    <path id="face" d="M63.6,118.8c-27.9,0-58-17.5-58-55.9S35.7,7,63.6,7c15.5,0,29.8,5.1,40.4,14.4 c11.5,10.2,17.6,24.6,17.6,41.5s-6.1,31.2-17.6,41.4C93.4,113.6,79,118.8,63.6,118.8z" fill="url(#face_1_)"/>
  </g>
  <g id="facial_expressions">
    <path d="M72.86,84.93c1.71-1.51,2.78-3.6,3-5.87c0.19-3.6-0.73-4.84-1.91-6.41 c-2.71-3.65-10.4-2.78-10.4-2.78c-2,0.08-4.44,1.06-4.15,3.44c0.39,1.35,1.49,2.38,2.87,2.69c3,0.73,7.37,0,7.49,3.09 c0.14,3.46-5.18,2-5.6,5.7s5.6,3.19,5.6,5.71c0,1.93-2,2.26-4.07,2.7c-1.79,0.37-5.23,0.93-5.51,3s0.91,4.57,5.75,3.84 c7.61-1.15,10.17-5.32,10.17-7.88C76.15,89.39,74.96,86.74,72.86,84.93z" fill="#422B0D"/>
    <path d="M44,40.94L44,40.94c-4.19,0-8,3.54-8,9.42s3.81,9.41,8,9.41l0,0c4.2,0,8-3.54,8-9.41 S48.24,40.94,44,40.94z" fill="#422B0D"/>
    <g id="peepers">
      <path d="M43.65,44.87L43.65,44.87c-1.42-0.68-3.13-0.08-3.82,1.34c-0.53,1.11-0.29,2.44,0.6,3.3l0,0 c1.42,0.68,3.13,0.08,3.82-1.34C44.78,47.06,44.54,45.73,43.65,44.87z" fill="#896024"/>
    </g>
    <path d="M82.4,40.94L82.4,40.94c-4.19,0-8,3.54-8,9.42s3.81,9.41,8,9.41l0,0c4.19,0,8-3.54,8-9.41 S86.59,40.94,82.4,40.94z" fill="#422B0D"/>
    <g id="peepers-2">
      <path d="M82,44.87L82,44.87c-1.42-0.68-3.13-0.08-3.82,1.34c-0.53,1.11-0.29,2.44,0.6,3.3l0,0 c1.42,0.68,3.13,0.08,3.82-1.34C83.13,47.06,82.89,45.73,82,44.87z" fill="#896024"/>
    </g>
    <path d="M111.49,29.67c5.33,8.6,8.11,18.84,8.11,30.23c0,16.9-6.1,31.2-17.6,41.4 c-10.6,9.3-25,14.5-40.4,14.5c-18.06,0-37-7.35-48.18-22.94c10.76,17.66,31,25.94,50.18,25.94c15.4,0,29.8-5.2,40.4-14.5 c11.5-10.2,17.6-24.5,17.6-41.4C121.6,50.16,118.13,38.84,111.49,29.67z" fill="#EB8F00"/>
  </g>
</svg>

<svg viewBox="0 0 128 128" xmlns="http://www.w3.org/2000/svg">
  <defs>
    <radialGradient id="face_1_" cx="63.6" cy="62.9" gradientUnits="userSpaceOnUse" r="56.9597">
      <stop offset="0.5" stop-color="#FDE030"/>
      <stop offset="0.92" stop-color="#F7C02B"/>
      <stop offset="1" stop-color="#F4A223"/>
    </radialGradient>
  </defs>
  <path id="face" d="M63.6,118.8 C35.7,118.8 5.6,101.3 5.6,62.9 C5.6,24.5 35.7,7 63.6,7 C79.1,7 93.4,12.1 104,21.4 C115.5,31.6 121.6,46 121.6,62.9 C121.6,79.8 115.5,94.1 104,104.3 C93.4,113.6 79,118.8 63.6,118.8 Z" fill="url(#face_1_)"/>
  <path d="M72.86,84.93 C74.57,83.42 75.64,81.33 75.86,79.06 C76.05,75.46 75.13,74.22 73.95,72.65 C71.24,69 63.55,69.87 63.55,69.87 C61.55,69.95 59.11,70.93 59.4,73.31 C59.79,74.66 60.89,75.69 62.27,76 C65.27,76.73 69.64,76 69.76,79.09 C69.9,82.55 64.58,81.09 64.16,84.79 C63.74,88.49 69.76,87.98 69.76,90.5 C69.76,92.43 67.76,92.76 65.69,93.2 C63.9,93.57 60.46,94.13 60.18,96.2 C59.9,98.27 61.09,100.77 65.93,100.04 C73.54,98.89 76.1,94.72 76.1,92.16 C76.15,89.39 74.96,86.74 72.86,84.93 Z" fill="#422B0D"/>
  <path d="M44,40.94 L44,40.94 C39.81,40.94 36,44.48 36,50.36 C36,56.24 39.81,59.77 44,59.77 L44,59.77 C48.2,59.77 52,56.23 52,50.36 C52,44.49 48.24,40.94 44,40.94 Z" fill="#422B0D"/>
  <path d="M43.65,44.87 L43.65,44.87 C42.23,44.19 40.52,44.79 39.83,46.21 C39.3,47.32 39.54,48.65 40.43,49.51 L40.43,49.51 C41.85,50.19 43.56,49.59 44.25,48.17 C44.78,47.06 44.54,45.73 43.65,44.87 Z" fill="#896024"/>
  <path d="M82.4,40.94 L82.4,40.94 C78.21,40.94 74.4,44.48 74.4,50.36 C74.4,56.24 78.21,59.77 82.4,59.77 L82.4,59.77 C86.59,59.77 90.4,56.23 90.4,50.36 C90.4,44.49 86.59,40.94 82.4,40.94 Z" fill="#422B0D"/>
  <path d="M82,44.87 L82,44.87 C80.58,44.19 78.87,44.79 78.18,46.21 C77.65,47.32 77.89,48.65 78.78,49.51 L78.78,49.51 C80.2,50.19 81.91,49.59 82.6,48.17 C83.13,47.06 82.89,45.73 82,44.87 Z" fill="#896024"/>
  <path d="M111.49,29.67 C116.82,38.27 119.6,48.51 119.6,59.9 C119.6,76.8 113.5,91.1 102,101.3 C91.4,110.6 77,115.8 61.6,115.8 C43.54,115.8 24.6,108.45 13.42,92.86 C24.18,110.52 44.42,118.8 63.6,118.8 C79,118.8 93.4,113.6 104,104.3 C115.5,94.1 121.6,79.8 121.6,62.9 C121.6,50.16 118.13,38.84 111.49,29.67 Z" fill="#EB8F00"/>
</svg>
